build/images/footer-mail.svg

<svg xmlns="http://www.w3.org/2000/svg" viewBox="0 0 12.2 9.8"><path d="M.2 8.2c0 .1-.1.1 0 0H.1c-.1.1-.1 0-.1 0V3.1C0 3 0 3 .1 3h.1l3.5 2s.1 0 .1.1v.1l-3.6 3zm11.6 1.4v.1l-.1.1H.4c-.1 0-.1 0-.2-.1 0 0-.1 0-.1-.1v-.1l4.4-4h.1l1.2.6c.2.1.3.1.5 0l1.3-.8h.1l4.1 4.3zm.4-6.7s0 .1 0 0l.1 5.5s0 .1-.1.1h-.1L8.8 5v-.2l3.4-1.9c-.1 0 0 0 0 0zM11.8 0c.1 0 .2 0 .3.1.1.1.1.2.1.3v1.2s0 .1-.1.1-.1 0-.1.1L6.2 5.1H6L0 1.7c0 .1 0 0 0 0V.4C0 .3 0 .2.1.1.2 0 .3 0 .4 0h11.4z" fill="#3e75ba"/></svg>

<?xml version="1.0" encoding="utf-8"?>
<!-- Generator: Adobe Illustrator 21.0.2, SVG Export Plug-In . SVG Version: 6.00 Build 0)  -->
<svg version="1.1" id="Layer_1" xmlns="http://www.w3.org/2000/svg" xmlns:xlink="http://www.w3.org/1999/xlink" x="0px" y="0px"
	 viewBox="0 0 12.2 9.8" style="enable-background:new 0 0 12.2 9.8;" xml:space="preserve">
<style type="text/css">
	.st0{fill:#3E75BA;}
</style>
<path id="Forma_1" class="st0" d="M0.2,8.2C0.2,8.3,0.1,8.3,0.2,8.2l-0.1,0C0,8.3,0,8.2,0,8.2V3.1C0,3,0,3,0.1,3c0,0,0.1,0,0.1,0
	l3.5,2c0,0,0.1,0,0.1,0.1c0,0,0,0.1,0,0.1L0.2,8.2z M11.8,9.6c0,0,0,0.1,0,0.1c0,0-0.1,0.1-0.1,0.1H0.4c-0.1,0-0.1,0-0.2-0.1
	c0,0-0.1,0-0.1-0.1c0,0,0-0.1,0-0.1l4.4-4c0,0,0.1,0,0.1,0l1.2,0.6c0.2,0.1,0.3,0.1,0.5,0l1.3-0.8c0.1,0,0.1,0,0.1,0L11.8,9.6z
	 M12.2,2.9C12.2,2.9,12.2,3,12.2,2.9l0.1,5.5c0,0,0,0.1-0.1,0.1c0,0,0,0,0,0c0,0-0.1,0-0.1,0L8.8,5c0,0,0-0.1,0-0.1c0,0,0-0.1,0-0.1
	L12.2,2.9C12.1,2.9,12.2,2.9,12.2,2.9C12.2,2.9,12.2,2.9,12.2,2.9L12.2,2.9z M11.8,0c0.1,0,0.2,0,0.3,0.1c0.1,0.1,0.1,0.2,0.1,0.3
	v1.2c0,0,0,0.1-0.1,0.1c0,0,0,0,0,0c-0.1,0-0.1,0-0.1,0.1L6.2,5.1c0,0,0,0-0.1,0c0,0,0,0-0.1,0l-6-3.4C0,1.8,0,1.7,0,1.7V0.4
	c0-0.1,0-0.2,0.1-0.3C0.2,0,0.3,0,0.4,0H11.8L11.8,0z"/>
</svg>
